X:1
T: The Duke of Richmond
C:William Marshall
R:Strathspey
Q: 128
K:Bb
M:4/4
L:1/16
|:f4 edcB ABG=E F4|F3B d3B fede c4|f4 edcB ABG=E F4|B,DFB dfed c4B4|
f4 edcB ABG=E F4|F3B d3B fede c4|f4 edcB ABG=E F4|B,DFB dfed c4B4|
c4 BAGF FAcd e4|d3B g3f =efge f4|gfga b3B edef g2E2|c3d e3d cBAG F4|
B3d c3d AGFE c4|c3e d3f edcB f4|gfga bgfe dfga bfdB|B,DFB dfed c4B4:|
